X: 1
T: Moladh Na Lanndaidh
M: 3/4
L: 1/8
R: waltz
K: Dmaj
F4 E2 | D4 D2 | (F4 G2) | A6 | A4 f2 | e4 c2 | (d4 B2) | A6|
A4 G2| A4 A2 | B4 c2 | d4 c2 | B4 A2 | d4 F2 | E6 | D6 ||
